!!!OTL: Wiedersehen an der Bahre.
!!!OTL-incipit: 'Schatz, ach Schatz, jetzt muss ich fort,
!!!ARE: Europa, Mitteleuropa, Deutschland (BRD), Rheinprovinz, Hunsrueck
!!!YOR: 3, S. 69
!!    1927 aufgezeichnet (vor)
!!!SCT: Q0056B
!!!TXL: @@DE
!!!YEM: Copyright 1995, estate of Helmut Schaffrath.
**kern	**text	**text
*ICvox	*	*
*M3/4	*	*
*k[b-]	*	*
*F:	*	*
!LO:TX:a:t=Schwermüthig.	!	!
{8f	1._'Schatʒ,	2._'Jch_ge-
8g	ach	-be
=1	=1	=1
4a	Schatʒ,	dir
4a	jetʒt	mein
8b-	muß	jun-
8dd	ich	-ges
=2	=2	=2
4cc	fort,	Blut
8r}	.	.
{8cc	muß	von
8dd	in	mei-
8ee	die	-nem
=3	=3	=3
4ff	Frem-	ros'-
4ee	-de	-gen
4dd	ʒie-	Mun-
=4	=4	=4
4cc	-hen.	-de.
8r}	.	.
{8cc	Was	.
8ff	gibſt	.
8ee	du	.
=5	=5	=5
4.dd	mir	.
8cc	fürs	.
8b-	letʒ-	.
8dd	-te	.
=6	=6	=6
4cc	Mal,	.
8r}	.	.
{8a	daß	.
8f	ich	.
8g	an	.
=7	=7	=7
8aL	dich	.
8ccJ	.	.
4cc	ge-	.
4b-	-den-	.
=8	=8	=8
4a	-ke?	.
8r}	.	.
{8cc	Ge-	.
8ff	-denk'	.
8ee	an	.
=9	=9	=9
4.dd	mich	.
8cc	viel	.
8b-	tau-	.
8dd	-ſend	.
=10	=10	=10
4cc	Mal,	.
8r}	.	.
{8a	ge-	.
8f	-denk'	.
8g	an	.
=11	=11	=11
8aL	je-	.
8ccJ	.	.
4cc	-ne	.
4b-	Stun-	.
=12	=12	=12
4a	-de!'	.
4r}	.	.
==	==	==
!!!AGN: Ballade, Abschied, Enttaeuschung, Tod, Selbstmord
!! Eingeklammerte Note am Zeilenanfang weggelassen.
!!!ONB: ESAC (Essen Associative Code) Database: BALLADE
!!!AMT: simple triple
!!!AIN: vox
!!!EED: Helmut Schaffrath
!!!EEV: 1.0
!!!source: Deutsche Volkslieder mit ihren Melodien. Herausgegeben vom Deutschen Volksliedarchiv. Dritter Band Balladen. Berlin 1954.
!!!page: 69
!!!ENC: Anna Maria Matuszewska
!!!EEV: 2025/02/18
*-	*-	*-
